X:4530
T:My own Blue Bell. CJF.200
O:england
M:6/8
L:1/8
Q:60
S: C.J.Fox MS, 1829/33, Beverley,E.Yorks.
R:Air
A:East Yorkshire
B:Kidson Coll.Mitchell Lib.M1805
K:Eb
E|G2AB2E|G G AB2B|B A A (AG) G|(e>c) (A/F/) (ED) (E/F/)|
G2A B E F|G2AB2e|e d c c B G|(BA) F (G>B) e|
f e c c B G|BA FE2z||
G|F2=AB2d|F G =AB2F|e d c d c B|(dc) B"tr"B{=AcB}h=A F|
f2de2c|d d B hc F F|F =E F f _e d|
